packages/foundations/assets/icons/functional/images/transportation/handcart_32.svg

<svg width="32" height="32" viewBox="0 0 32 32" fill="none" xmlns="http://www.w3.org/2000/svg">
<g clip-path="url(#clip0_2214_7279)">
<path fill-rule="evenodd" clip-rule="evenodd" d="M6.99933 21.5C8.65618 21.5 9.99933 22.8431 9.99933 24.5C9.99933 26.1569 8.65618 27.5 6.99933 27.5C5.34247 27.5 3.99933 26.1569 3.99933 24.5C3.99933 22.8431 5.34247 21.5 6.99933 21.5ZM19.9993 21.5C21.6562 21.5 22.9993 22.8431 22.9993 24.5C22.9993 26.1569 21.6562 27.5 19.9993 27.5C18.3425 27.5 16.9993 26.1569 16.9993 24.5C16.9993 22.8431 18.3425 21.5 19.9993 21.5ZM6.99933 23.5C6.44704 23.5 5.99933 23.9477 5.99933 24.5C5.99933 25.0523 6.44704 25.5 6.99933 25.5C7.55161 25.5 7.99933 25.0523 7.99933 24.5C7.99933 23.9477 7.55161 23.5 6.99933 23.5ZM19.9993 23.5C19.447 23.5 18.9993 23.9477 18.9993 24.5C18.9993 25.0523 19.447 25.5 19.9993 25.5C20.5516 25.5 20.9993 25.0523 20.9993 24.5C20.9993 23.9477 20.5516 23.5 19.9993 23.5ZM15.554 22.6679C16.0136 22.9743 16.1377 23.5952 15.8314 24.0547C15.5469 24.4814 14.9912 24.619 14.5454 24.3911C14.2337 24.1776 13.897 24.0654 13.5356 24.0547C13.1741 24.044 12.8469 24.1364 12.554 24.3321C12.0945 24.6384 11.4736 24.5142 11.1673 24.0547C10.8609 23.5952 10.9851 22.9743 11.4446 22.6679C12.6889 21.8385 14.3098 21.8385 15.554 22.6679ZM24.9993 4.5C26.355 4.5 27.5152 5.45051 27.7943 6.76103C29.1915 16.0701 29.9228 20.9336 29.9883 21.3517C30.0864 21.9787 29.5783 22.3892 29.2419 22.4701C29.0176 22.5241 27.6842 22.8574 25.2419 23.4701C24.7061 23.6041 24.1631 23.2783 24.0292 22.7425C23.9048 22.245 24.1912 21.6785 24.7568 21.5299L27.8753 20.749L25.8477 7.23064C25.79 6.84568 25.4517 6.5 24.9993 6.5C24.447 6.5 23.9993 6.05228 23.9993 5.5C23.9993 4.94772 24.447 4.5 24.9993 4.5ZM23.9993 12.5C24.5516 12.5 24.9993 12.9477 24.9993 13.5C24.9993 14.0128 24.5737 14.5 23.9946 14.5V17.497C23.9108 19.0956 22.7092 20.4035 21.1715 20.4949H5.82713C4.28941 20.4035 3.08787 19.0956 3.00401 17.497L2.99933 14.5C2.44704 14.5 1.99933 14.0523 1.99933 13.5C1.99933 12.9872 2.43219 12.5 2.99933 12.5H23.9993ZM21.9993 14.5H4.99933L5.00545 17.4502C5.05798 18.012 5.54726 18.4356 5.99933 18.4933H21.1047C21.5568 18.4356 21.9407 18.012 21.9932 17.4502L21.9993 14.5Z" fill="#1A1C1F"/>
</g>
<defs>
<clipPath id="clip0_2214_7279">
<rect width="32" height="32" fill="white"/>
</clipPath>
</defs>
</svg>

<svg xmlns="http://www.w3.org/2000/svg" width="32" height="32" fill="none"><g clip-path="url(#a)"><path fill="#1A1C1F" fill-rule="evenodd" d="M7 21.5a3 3 0 1 1 0 6 3 3 0 0 1 0-6m13 0a3 3 0 1 1 0 6 3 3 0 0 1 0-6m-13 2a1 1 0 1 0 0 2 1 1 0 0 0 0-2m13 0a1 1 0 1 0 0 2 1 1 0 0 0 0-2m-4.446-.832a1 1 0 0 1-1.009 1.723 1.85 1.85 0 0 0-1.01-.336 1.64 1.64 0 0 0-.981.277 1 1 0 0 1-1.11-1.664 3.7 3.7 0 0 1 4.11 0M24.999 4.5c1.356 0 2.516.95 2.795 2.261q2.097 13.965 2.194 14.59c.098.628-.41 1.038-.746 1.12q-.336.08-4 1a1 1 0 0 1-1.213-.729 1.01 1.01 0 0 1 .728-1.212l3.118-.781-2.027-13.518a.86.86 0 0 0-.849-.731 1 1 0 1 1 0-2m-1 8a1 1 0 0 1 1 1c0 .513-.425 1-1.004 1v2.997c-.084 1.599-1.286 2.907-2.823 2.998H5.827c-1.538-.091-2.74-1.4-2.823-2.998L2.999 14.5a1 1 0 0 1-1-1c0-.513.433-1 1-1zm-2 2H5l.006 2.95c.053.562.542.986.994 1.043h15.106c.452-.057.836-.481.888-1.043z" clip-rule="evenodd"/></g><defs><clipPath id="a"><path fill="#fff" d="M0 0h32v32H0z"/></clipPath></defs></svg>
